X: 5
T: The Porthole Of The Kelp
R: reel
M: 4/4
L: 1/8
K: Ddor
DE|:F2DE FDD2|FEFG ECC2|F2DE F2Ac|FDEG EDDE|
F2DE FEAE|cEGE EDC2|DEFG Add2|1cAGE EDD2:|2cAGE EDDF||
|:Add2 dcAG|F2DF ECC2|d2cd dcAG|BGAc d3e|
fdef cAAG|EDGD EDC2|DEFG Add2|1cAGE EDDF:|2cAGE EDD2||


Tune 263	Setting 263

